dist/img/svg/icon-menu-gallery.svg

<svg width="13" height="13" viewBox="0 0 13 13" fill="none" xmlns="http://www.w3.org/2000/svg">
<path d="M10.4154 3.41893L7.00647 0.202434C6.87161 0.0735895 6.68827 0.000776193 6.49676 6.16969e-06C6.30525 -0.000763853 6.12126 0.0705725 5.98525 0.198327L5.98092 0.202434L2.58647 3.41893H0.723138C0.531592 3.41893 0.347892 3.49104 0.212449 3.61938C0.0770065 3.74772 0.000915527 3.92179 0.000915527 4.1033V12.3156C0.000915527 12.4971 0.0770065 12.6712 0.212449 12.7996C0.347892 12.9279 0.531592 13 0.723138 13H12.2787C12.4702 13 12.6539 12.9279 12.7894 12.7996C12.9248 12.6712 13.0009 12.4971 13.0009 12.3156V4.1033C13.0009 3.92179 12.9248 3.74772 12.7894 3.61938C12.6539 3.49104 12.4702 3.41893 12.2787 3.41893H10.4154ZM6.50092 1.65328L8.36425 3.41893H4.63758L6.50092 1.65328ZM11.5565 11.6313H1.44536V4.78766H11.5565V11.6313ZM5.05647 6.84074C5.05647 7.02225 4.98038 7.19632 4.84494 7.32466C4.70949 7.453 4.52579 7.5251 4.33425 7.5251C4.1427 7.5251 3.959 7.453 3.82356 7.32466C3.68812 7.19632 3.61203 7.02225 3.61203 6.84074C3.61203 6.65924 3.68812 6.48517 3.82356 6.35683C3.959 6.22848 4.1427 6.15638 4.33425 6.15638C4.52579 6.15638 4.70949 6.22848 4.84494 6.35683C4.98038 6.48517 5.05647 6.65924 5.05647 6.84074ZM10.112 10.2626H4.33425L5.41758 8.20947L6.1398 9.57819L7.94536 6.15638L10.112 10.2626Z" fill="white"/>
</svg>

<svg width="13" height="13" viewBox="0 0 13 13" fill="none" xmlns="http://www.w3.org/2000/svg"><path d="M10.415 3.419L7.006.202A.743.743 0 006.496 0a.743.743 0 00-.51.198L5.98.202 2.586 3.42H.723a.743.743 0 00-.51.2.667.667 0 00-.212.484v8.213a.67.67 0 00.211.484c.136.128.32.2.511.2H12.28a.743.743 0 00.51-.2.667.667 0 00.212-.484V4.103a.667.667 0 00-.212-.484.743.743 0 00-.51-.2h-1.864zM6.501 1.653L8.364 3.42H4.638L6.5 1.653zm5.055 9.978H1.447V4.788h10.11v6.843zm-6.5-4.79a.667.667 0 01-.211.484.743.743 0 01-.51.2.743.743 0 01-.511-.2.667.667 0 01-.212-.484c0-.182.076-.356.212-.484a.738.738 0 01.51-.2c.192 0 .375.071.51.2a.667.667 0 01.212.484zm5.056 3.422H4.334l1.084-2.054.722 1.37 1.805-3.423 2.167 4.107z" fill="#fff"/></svg>
